SVG_Azure_All/Storage Account Blob Cool.svg

<?xml version="1.0" encoding="UTF-8" standalone="no"?>
<!-- Generated by Microsoft Visio, SVG Export Storage Account Blob Cool.svg Page-1 -->

<svg
   xmlns:dc="http://purl.org/dc/elements/1.1/"
   xmlns:cc="http://creativecommons.org/ns#"
   xmlns:rdf="http://www.w3.org/1999/02/22-rdf-syntax-ns#"
   xmlns:svg="http://www.w3.org/2000/svg"
   xmlns="http://www.w3.org/2000/svg"
   xmlns:sodipodi="http://sodipodi.sourceforge.net/DTD/sodipodi-0.dtd"
   xmlns:inkscape="http://www.inkscape.org/namespaces/inkscape"
   width="0.78736007in"
   height="0.66923386in"
   viewBox="0 0 56.689993 48.184908"
   xml:space="preserve"
   class="st6"
   version="1.1"
   id="svg77"
   sodipodi:docname="Storage Account Blob Cool.svg"
   style="font-size:12px;overflow:visible;color-interpolation-filters:sRGB;fill:none;fill-rule:evenodd;stroke-linecap:square;stroke-miterlimit:3"
   inkscape:version="0.92.5 (2060ec1f9f, 2020-04-08)"><metadata
   id="metadata83"><rdf:RDF><cc:Work
       rdf:about=""><dc:format>image/svg+xml</dc:format><dc:type
         rdf:resource="http://purl.org/dc/dcmitype/StillImage" /></cc:Work></rdf:RDF></metadata><defs
   id="defs81" /><sodipodi:namedview
   pagecolor="#ffffff"
   bordercolor="#666666"
   borderopacity="1"
   objecttolerance="10"
   gridtolerance="10"
   guidetolerance="10"
   inkscape:pageopacity="0"
   inkscape:pageshadow="2"
   inkscape:window-width="640"
   inkscape:window-height="480"
   id="namedview79"
   showgrid="false"
   inkscape:zoom="1.8741153"
   inkscape:cx="37.795223"
   inkscape:cy="17.602588"
   inkscape:window-x="0"
   inkscape:window-y="0"
   inkscape:window-maximized="0"
   inkscape:current-layer="svg77" />
	<style
   type="text/css"
   id="style2">
	<![CDATA[
		.st1 {fill:#a0a1a2;stroke:none;stroke-width:12.24}
		.st2 {fill:#7a7a7a;stroke:none;stroke-width:12.24}
		.st3 {fill:#ffffff;stroke:none;stroke-width:12.24}
		.st4 {fill:#2272b9;stroke:none;stroke-width:0.859307}
		.st5 {fill:#ffffff;fill-opacity:0.2;stroke:none;stroke-width:12.24}
		.st6 {fill:none;fill-rule:evenodd;font-size:12px;overflow:visible;stroke-linecap:square;stroke-miterlimit:3}
	]]>
	</style>

	<g
   id="g75"
   transform="translate(-12.24,-12.2394)">
		<title
   id="title4">Page-1</title>
		<g
   id="group1044-1"
   transform="translate(12.24,-34.0157)">
			<title
   id="title6">Storage Account Blob Cool</title>
			<g
   id="group1045-2">
				<title
   id="title8">Page-1</title>
				<g
   id="group1046-3">
					<title
   id="title10">Azure Storage (Blog) Cool Tier</title>
					<g
   id="shape1047-4">
						<title
   id="title12">Sheet.1047</title>
						<path
   d="m 0,92.3 c 0,1.13 0.8,2.14 2.15,2.14 h 52.39 c 1.13,0 2.15,-0.78 2.15,-2.14 V 54.85 H 0 Z"
   class="st1"
   id="path14"
   inkscape:connector-curvature="0"
   style="fill:#a0a1a2;stroke:none;stroke-width:12.23999977" />
					</g>
					<g
   id="shape1048-6"
   transform="translate(0,-39.5949)">
						<title
   id="title17">Sheet.1048</title>
						<path
   d="M 54.54,85.85 H 2.15 C 0.8,85.85 0,86.87 0,88 v 6.44 H 56.69 V 88 c 0,-1.13 -0.79,-2.15 -2.15,-2.15 z"
   class="st2"
   id="path19"
   inkscape:connector-curvature="0"
   style="fill:#7a7a7a;stroke:none;stroke-width:12.23999977" />
					</g>
					<g
   id="shape1049-8"
   transform="translate(21.3171,-27.2603)">
						<title
   id="title22">Sheet.1049</title>
						<rect
   x="0"
   y="85.847"
   width="14.287"
   height="8.5977697"
   class="st3"
   id="rect24"
   style="fill:#ffffff;stroke:none;stroke-width:12.23999977" />
					</g>
					<g
   id="shape1050-10"
   transform="translate(21.3171,-15.608)">
						<title
   id="title27">Sheet.1050</title>
						<rect
   x="0"
   y="85.847"
   width="14.287"
   height="8.5977697"
   class="st4"
   id="rect29"
   style="fill:#2272b9;stroke:none;stroke-width:0.85930699" />
					</g>
					<g
   id="shape1051-12"
   transform="translate(38.3255,-15.608)">
						<title
   id="title32">Sheet.1051</title>
						<rect
   x="0"
   y="85.847"
   width="14.287"
   height="8.5977697"
   class="st4"
   id="rect34"
   style="fill:#2272b9;stroke:none;stroke-width:0.85930699" />
					</g>
					<g
   id="shape1052-14"
   transform="translate(38.3255,-27.2603)">
						<title
   id="title37">Sheet.1052</title>
						<rect
   x="0"
   y="85.847"
   width="14.287"
   height="8.5977697"
   class="st3"
   id="rect39"
   style="fill:#ffffff;stroke:none;stroke-width:12.23999977" />
					</g>
					<g
   id="shape1053-16"
   transform="translate(4.30878,-27.2603)">
						<title
   id="title42">Sheet.1053</title>
						<rect
   x="0"
   y="85.847"
   width="14.287"
   height="8.5977697"
   class="st3"
   id="rect44"
   style="fill:#ffffff;stroke:none;stroke-width:12.23999977" />
					</g>
					<g
   id="shape1054-18"
   transform="translate(4.30878,-15.608)">
						<title
   id="title47">Sheet.1054</title>
						<rect
   x="0"
   y="85.847"
   width="14.287"
   height="8.5977697"
   class="st3"
   id="rect49"
   style="fill:#ffffff;stroke:none;stroke-width:12.23999977" />
					</g>
					<g
   id="shape1055-20"
   transform="translate(4.30878,-4.06894)">
						<title
   id="title52">Sheet.1055</title>
						<rect
   x="0"
   y="85.847"
   width="14.287"
   height="8.5977697"
   class="st4"
   id="rect54"
   style="fill:#2272b9;stroke:none;stroke-width:0.85930699" />
					</g>
					<g
   id="shape1056-22"
   transform="translate(21.3171,-4.06894)">
						<title
   id="title57">Sheet.1056</title>
						<rect
   x="0"
   y="85.847"
   width="14.287"
   height="8.5977697"
   class="st4"
   id="rect59"
   style="fill:#2272b9;stroke:none;stroke-width:0.85930699" />
					</g>
					<g
   id="shape1057-24"
   transform="translate(38.3255,-4.06894)">
						<title
   id="title62">Sheet.1057</title>
						<rect
   x="0"
   y="85.847"
   width="14.287"
   height="8.5977697"
   class="st4"
   id="rect64"
   style="fill:#2272b9;stroke:none;stroke-width:0.85930699" />
					</g>
					<g
   id="shape1058-26">
						<title
   id="title67">Sheet.1058</title>
						<path
   d="M 2.15,46.26 C 1.13,46.26 0,47.27 0,48.41 v 8.37 3.73 31.79 c 0,1.13 1.13,2.14 2.15,2.14 H 4.53 L 49.44,46.26 Z"
   class="st5"
   id="path69"
   inkscape:connector-curvature="0"
   style="fill:#ffffff;fill-opacity:0.2;stroke:none;stroke-width:12.23999977" />
					</g>
				</g>
			</g>
		</g>
	</g>
</svg>

<?xml version="1.0" encoding="UTF-8" standalone="no"?>
<!DOCTYPE svg PUBLIC "-//W3C//DTD SVG 1.1//EN" "http://www.w3.org/Graphics/SVG/1.1/DTD/svg11.dtd">
<!-- Generated by Microsoft Visio, SVG Export Storage Account Blob Cool.svg Page-1 -->
<svg xmlns="http://www.w3.org/2000/svg" xmlns:xlink="http://www.w3.org/1999/xlink" xmlns:ev="http://www.w3.org/2001/xml-events"
		width="1.1274in" height="1.31173in" viewBox="0 0 81.1729 94.4447" xml:space="preserve" color-interpolation-filters="sRGB"
		class="st6">
	<style type="text/css">
	<![CDATA[
		.st1 {fill:#a0a1a2;stroke:none;stroke-width:12.24}
		.st2 {fill:#7a7a7a;stroke:none;stroke-width:12.24}
		.st3 {fill:#ffffff;stroke:none;stroke-width:12.24}
		.st4 {fill:#2272b9;stroke:none;stroke-width:0.859307}
		.st5 {fill:#ffffff;fill-opacity:0.2;stroke:none;stroke-width:12.24}
		.st6 {fill:none;fill-rule:evenodd;font-size:12px;overflow:visible;stroke-linecap:square;stroke-miterlimit:3}
	]]>
	</style>

	<g>
		<title>Page-1</title>
		<g id="group1029-1" transform="translate(12.24,-34.0157)">
			<title>Storage Account Blob Cool</title>
			<g id="group1030-2">
				<title>Page-1</title>
				<g id="group1031-3">
					<title>Azure Storage (Blog) Cool Tier</title>
					<g id="shape1032-4">
						<title>Sheet.1032</title>
						<path d="M0 92.3 C0 93.43 0.8 94.44 2.15 94.44 L54.54 94.44 C55.67 94.44 56.69 93.66 56.69 92.3 L56.69 54.85
									 L0 54.85 L0 92.3 Z" class="st1"/>
					</g>
					<g id="shape1033-6" transform="translate(0,-39.5949)">
						<title>Sheet.1033</title>
						<path d="M54.54 85.85 L2.15 85.85 C0.8 85.85 0 86.87 0 88 L0 94.44 L56.69 94.44 L56.69 88 C56.69 86.87 55.9
									 85.85 54.54 85.85 Z" class="st2"/>
					</g>
					<g id="shape1034-8" transform="translate(21.3171,-27.2603)">
						<title>Sheet.1034</title>
						<rect x="0" y="85.847" width="14.287" height="8.59777" class="st3"/>
					</g>
					<g id="shape1035-10" transform="translate(21.3171,-15.608)">
						<title>Sheet.1035</title>
						<rect x="0" y="85.847" width="14.287" height="8.59777" class="st4"/>
					</g>
					<g id="shape1036-12" transform="translate(38.3255,-15.608)">
						<title>Sheet.1036</title>
						<rect x="0" y="85.847" width="14.287" height="8.59777" class="st4"/>
					</g>
					<g id="shape1037-14" transform="translate(38.3255,-27.2603)">
						<title>Sheet.1037</title>
						<rect x="0" y="85.847" width="14.287" height="8.59777" class="st3"/>
					</g>
					<g id="shape1038-16" transform="translate(4.30878,-27.2603)">
						<title>Sheet.1038</title>
						<rect x="0" y="85.847" width="14.287" height="8.59777" class="st3"/>
					</g>
					<g id="shape1039-18" transform="translate(4.30878,-15.608)">
						<title>Sheet.1039</title>
						<rect x="0" y="85.847" width="14.287" height="8.59777" class="st3"/>
					</g>
					<g id="shape1040-20" transform="translate(4.30878,-4.06894)">
						<title>Sheet.1040</title>
						<rect x="0" y="85.847" width="14.287" height="8.59777" class="st4"/>
					</g>
					<g id="shape1041-22" transform="translate(21.3171,-4.06894)">
						<title>Sheet.1041</title>
						<rect x="0" y="85.847" width="14.287" height="8.59777" class="st4"/>
					</g>
					<g id="shape1042-24" transform="translate(38.3255,-4.06894)">
						<title>Sheet.1042</title>
						<rect x="0" y="85.847" width="14.287" height="8.59777" class="st4"/>
					</g>
					<g id="shape1043-26">
						<title>Sheet.1043</title>
						<path d="M2.15 46.26 C1.13 46.26 0 47.27 0 48.41 L0 56.78 L0 60.51 L0 92.3 C0 93.43 1.13 94.44 2.15 94.44
									 L4.53 94.44 L49.44 46.26 L2.15 46.26 Z" class="st5"/>
					</g>
				</g>
			</g>
		</g>
	</g>
</svg>
